symbols/web/pageview/materialsymbolssharp/pageview_wght200grad200_24px.svg

<svg xmlns="http://www.w3.org/2000/svg" height="24" width="24"><path d="m16.15 17.2 1.175-1.15-2.05-2.05q.35-.575.513-1.075.162-.5.162-1.175 0-1.775-1.212-2.988Q13.525 7.55 11.75 7.55T8.763 8.762Q7.55 9.975 7.55 11.75t1.213 2.987q1.212 1.213 2.987 1.213.65 0 1.262-.2.613-.2 1.138-.575Zm-4.4-2.9q-1.1 0-1.825-.725Q9.2 12.85 9.2 11.75t.725-1.825Q10.65 9.2 11.75 9.2t1.825.725q.725.725.725 1.825t-.725 1.825q-.725.725-1.825.725Zm-9.4 5.3V4.4h19.3v15.2ZM4 17.95h16V6.05H4Zm0 0V6.05v11.9Z"/></svg>

<svg xmlns="http://www.w3.org/2000/svg" height="24" width="24"><path d="M16.15 17.2 17.325 16.05 15.275 14Q15.625 13.425 15.788 12.925Q15.95 12.425 15.95 11.75Q15.95 9.975 14.738 8.762Q13.525 7.55 11.75 7.55Q9.975 7.55 8.763 8.762Q7.55 9.975 7.55 11.75Q7.55 13.525 8.763 14.737Q9.975 15.95 11.75 15.95Q12.4 15.95 13.012 15.75Q13.625 15.55 14.15 15.175ZM11.75 14.3Q10.65 14.3 9.925 13.575Q9.2 12.85 9.2 11.75Q9.2 10.65 9.925 9.925Q10.65 9.2 11.75 9.2Q12.85 9.2 13.575 9.925Q14.3 10.65 14.3 11.75Q14.3 12.85 13.575 13.575Q12.85 14.3 11.75 14.3ZM2.35 19.6V4.4H21.65V19.6ZM4 17.95H20V6.05H4ZM4 17.95V6.05V17.95Z"/></svg>
